X: 41007
T: Trip To Galway, The
R: jig
M: 6/8
K: Eminor
c|:BGE EFE|~d3 BAG|FED DED|FGA ABc|
BGE EFE|~d3 def|gfe fed|1 Bee edc:|2 Bee e2 f||
|:gfe bge|gfe bge|fdB Adf|fdf agf|
gfe bge|gfe bge|fed edc|1 Bee e2 f:|2 Bee edc||

